X:3016
T:Polska efter Perbjörs Erik
R:Springlek
O:Ytternäs, Lima sn, Dalarna
S:efter Perbjörs Erik Persson, "[[Personer/Fjös Erik]]" (1833-1921)
B:EÖ nr 379
Z:Nils L
M:3/4
L:1/8
%%tuplets 0 0 1
K:D
A2 d2 Ac | de f2 d2 | df ag ef | (3geg f4 :|
f2 a2 ef | (3geg f2 d2 | f2 ed ce | ed [D4d4] |
df ag ef | (3geg f2 d2 | Pf2 ed ce | ed d4 ||
(:musicend:)
(:music:)
